.local/share/icons/Gruvbox-Plus-Dark/panel/22/keybase-uploading.svg

<svg xmlns="http://www.w3.org/2000/svg" width="22" height="22" version="1.1">
 <defs>
  <style id="current-color-scheme" type="text/css">
   .ColorScheme-Text { color:#ebdbb2; } .ColorScheme-Highlight { color:#458588; }
  </style>
 </defs>
 <path style="fill:currentColor" class="ColorScheme-Text" d="M 9.3378906,3 C 9.2917506,3 8.9898905,3.5097587 8.703125,4.0722656 8.2833253,4.8957293 8.0823547,5.5282129 8.0136719,6.2597656 7.9967029,6.44054 8.0003426,6.6184414 8.0117188,6.7929688 8.0046384,6.8715927 8.00072,6.9503658 8,7.0292969 8,7.350909 8.06468,7.6552539 8.1601562,7.9453125 6.8950989,8.5095454 5.823752,9.4303818 5.0878906,10.589844 4.9068303,10.826602 4.7468155,11.073389 4.6308594,11.337891 4.4486475,11.753525 4.313504,12.183712 4.2109375,12.648438 c -0.068248,0.275755 -0.1256893,0.554232 -0.1601563,0.841796 -0.00307,0.0256 0.00501,0.03097 0.017578,0.02734 -0.013155,0.110763 -0.030783,0.216029 -0.041016,0.332031 C 3.9945387,14.221494 3.990599,14.374998 4.015625,14.375 L 8,10 6.96875,13.455078 c 0.00607,0.0061 0.1375376,-0.04757 0.2929688,-0.11914 0.9549601,-0.439703 2.1451299,-1.206465 3.1972652,-1.332032 0.36284,-0.0433 1.621735,-0.04747 2,-0.0078 0.37305,0.03909 0.729972,0.199432 1.097657,0.380859 C 14.485487,11.493536 15.718143,11.000626 17,11 c 0.04691,0.0019 0.09379,0.0045 0.140625,0.0078 -0.01597,-0.05208 -0.04136,-0.111494 -0.08594,-0.189453 -0.09589,-0.254803 -0.237999,-0.510365 -0.451172,-0.798828 C 15.812928,9.1507743 14.885394,8.4287802 13.837891,7.9492188 13.934232,7.6579794 14,7.3524242 14,7.0292969 13.999974,6.9537899 13.9979,6.8780222 13.9922,6.8027344 13.9948,6.7274754 14.002,6.6521806 13.9981,6.578125 13.944873,5.5609826 13.350328,4.8631388 12.453125,4.4042969 11.978118,4.1613714 11.251468,4.0478117 10.777344,4.046875 10.185851,4.045709 9.7363509,3.537145 9.4472656,3.1210938 9.4009907,3.0544931 9.3516794,2.9999994 9.3378906,3 Z M 17,12 c -2.2091,0 -4,1.7909 -4,4 0,2.2091 1.7909,4 4,4 2.2091,0 4,-1.7909 4,-4 0,-2.2091 -1.7909,-4 -4,-4 z m -4.644531,0.990234 c -0.142321,-0.01491 -1.677283,-0.0061 -1.777344,0.0059 -0.6646016,0.07932 -1.8290213,0.755645 -2.8984375,1.248047 -0.088747,0.04086 -0.1700516,0.07725 -0.2441406,0.107421 -0.037045,0.01508 -0.068655,0.0278 -0.1191407,0.04492 -0.025243,0.0086 -0.0507,0.01801 -0.1171874,0.0332 -0.033244,0.0076 -0.072608,0.01784 -0.171875,0.02344 -0.049633,0.0028 -0.2280842,-0.01164 -0.2285157,-0.01172 C 6.7986124,14.44133 6.5782807,14.37507 6.578125,14.375 6.5779693,14.374934 6.2598605,14.160252 6.2597656,14.160156 6.1301038,14.029833 6.0388721,13.866291 5.9960938,13.6875 L 4.7558594,15.048828 C 4.5835357,15.238164 4.3451639,15.354204 4.0898438,15.373047 4.2920062,16.722159 4.8839712,17.9828 5.7929688,19 l 7.2148432,0 C 12.355913,18.135498 12.002253,17.082743 12,16 c 3.68e-4,-1.000863 0.3011,-1.978583 0.863281,-2.806641 -0.212687,-0.105355 -0.393279,-0.191123 -0.507812,-0.203125 z M 17,13 l 2.5,3 -1.5,0 0,2 -2,0 0,-2 -1.5,0 z m -9,2 c 0.5522847,0 1,0.447715 1,1 0,0.552285 -0.4477153,1 -1,1 -0.5522847,0 -1,-0.447715 -1,-1 0,-0.552285 0.4477153,-1 1,-1 z"/>
</svg>

<svg width="22" height="22" version="1.1" xmlns="http://www.w3.org/2000/svg">
  <defs>
    <style id="current-color-scheme" type="text/css">.ColorScheme-Text { color:#ebdbb2; } .ColorScheme-Highlight { color:#458588; } .ColorScheme-NeutralText { color:#fe8019; } .ColorScheme-PositiveText { color:#689d6a; } .ColorScheme-NegativeText { color:#fb4934; }</style>
  </defs>
  <path class="ColorScheme-Text" d="m9.357 3.004c-0.06868-7.2e-4 -0.3714 0.5062-0.6582 1.068-0.4138 0.8118-1.032 2.389-0.543 3.873-4.318 1.814-4.168 6.432-4.152 6.432l3.992-4.375-1.031 3.453s2.165-1.207 3.49-1.449c0.7684-0.1401 1.235-0.1287 2-0.0078 0.3839 0.06062 0.7459 0.2074 1.113 0.377 0.9252-0.879 2.152-1.371 3.428-1.375 0.03842 2.24e-4 0.07683 8.91e-4 0.1152 2e-3 -0.365-1.201-1.988-2.461-3.277-3.051 0.1937-0.5855 0.6415-2.508-1.385-3.545-0.475-0.2429-1.202-0.3565-1.676-0.3574-0.8649-0.00171-1.347-1.044-1.416-1.045zm7.643 8.996c-2.209 0-4 1.791-4 4s1.791 4 4 4 4-1.791 4-4-1.791-4-4-4zm-5.459 0.8887c-0.2561-0.0028-0.5383 0.02937-0.9668 0.1074-0.6586 0.1195-1.829 0.7556-2.898 1.248-1.36 0.626-1.656-0.4393-1.684-0.5566l-1.24 1.361c-0.1723 0.1893-0.4107 0.3054-0.666 0.3242 0.2021 1.349 0.7942 2.61 1.703 3.627h7.223c-0.6547-0.8635-1.011-1.916-1.016-3 0.0026-1.007 0.3089-1.989 0.8789-2.818-0.1772-0.08513-0.3472-0.1582-0.5234-0.1914-0.324-0.06106-0.5544-0.09879-0.8105-0.1016zm5.459 0.1113 2.5 3h-1.5v2h-2v-2h-1.5zm-9.004 2c0.5523 0 1 0.4477 1 1s-0.4477 1-1 1-1-0.4477-1-1 0.4477-1 1-1z" fill="currentColor"/>
</svg>
